cast-off.svg

<svg fill="currentColor" viewBox="0 0 24 24"><path d="M1.6 1.27.25 2.75 1.41 3.8C1.16 4.13 1 4.55 1 5v3h2V5.23L18.2 19H14v2h6.41l1.9 1.72 1.34-1.48M6.5 3l2.2 2H21v11.14l2 1.81V5a2 2 0 0 0-2-2M1 10v2a9 9 0 0 1 9 9h2c0-6.08-4.92-11-11-11m0 4v2a5 5 0 0 1 5 5h2a7 7 0 0 0-7-7m0 4v3h3a3 3 0 0 0-3-3"/></svg>

<svg  viewBox="0 0 24 24" fill="currentColor"><path  d="M1.6,1.27L0.25,2.75L1.41,3.8C1.16,4.13 1,4.55 1,5V8H3V5.23L18.2,19H14V21H20.41L22.31,22.72L23.65,21.24M6.5,3L8.7,5H21V16.14L23,17.95V5C23,3.89 22.1,3 21,3M1,10V12A9,9 0 0,1 10,21H12C12,14.92 7.08,10 1,10M1,14V16A5,5 0 0,1 6,21H8A7,7 0 0,0 1,14M1,18V21H4A3,3 0 0,0 1,18Z"/></svg>
